X:1
T:Title
%%score { ( 1 3 ) | ( 2 4 ) }
L:1/8
Q:1/4=106
M:4/4
K:C
V:1 treble nm="Grand Piano"
V:3 treble 
V:2 bass 
V:4 bass 
V:1
 [EG]3 [FA] [EG]2 [CE]2 | [Ec]3 [FA] [EG]4 | [EG]3 [FA] [Ec]2 [FA]2 | [EG]2 E2 D4 | %4
w: F.~A.~Blackmer * * *||||
 [EG]3 [FA] [EG]2 [CE]2 | [Ec]3 [FA] [EG]4 | C3 D E2 F2 | [G,CE]2 [F,B,D]2 [E,C]4 | %8
w: ||||
 [CEG]3 [CFA] E2- [Ec]2 | c3 d c2 A2 | [EG]3 [FA] [EG]2 [Gc]2 | [Ge]2 [Gc]2 [Gd]4 | %12
w: ||||
 [Ge]3 [Fd] [Ec]2 [EG]2 | [CE][EG] [GB]2 [FA]4 | [Fd]3 [Ge] [Af]2 [Fd]2 | c2 [DB]2 [Ec]4 |] %16
w: ||||
V:2
 [C,C]3 [C,C] [C,C]2 [C,G,]2 | [C,G,]3 [C,C] [C,C]4 | [C,C]3 [C,C] [C,G,]2 [C,C]2 | %3
 [C,C]2 [E,G,C]2 [G,B,]4 | [C,C]3 [C,C] [C,C]2 [C,G,]2 | [C,G,]3 [C,C] [C,C]4 | %6
 [E,G,]3 [F,A,C] [G,C]2 [G,D]2 | G,,2 G,,2 C,4 | C,3 C, z2 G,2 | [F,A,F]3 [F,A,F] [F,F]2- [F,CF]2 | %10
 [C,C]3 [C,C] [C,C]2 [E,C]2 | [C,D]2 [E,C]2 [G,B,]4 | [C,C]3 [C,C] [C,G,]2 [C,C]2 | %13
 [C,G,]2 [E,C]2 [F,C]4 | [F,C]3 [E,^C] [D,D]2 [F,A,]2 | [G,E]2 [G,,G,]2 [C,G,]4 |] %16
V:3
 x8 | x8 | x8 | x8 | x8 | x8 | x8 | x8 | z4 [CG]2 z2 | x8 | x8 | x8 | x8 | x8 | x8 | x8 |] %16
V:4
 x8 | x8 | x8 | x8 | x8 | x8 | x8 | x8 | z4 C,4 | z4 A,2 z2 | x8 | x8 | x8 | x8 | x8 | x8 |] %16

